X:1
T:By the Way of Redeeming Love
T:By the Way of Redeeming Love
T:Albert Simpson Reitz
T:Albert Simpson Reitz, 1918
T:Public Domain Courtesy of the Cyber Hymnal™
C:Albert Simpson Reitz
Z:Public Domain
Z:Courtesy of the Cyber Hymnal™
%%score ( 1 2 ) ( 3 4 )
L:1/8
Q:1/4=110
M:4/4
K:Ab
V:1 treble 
V:2 treble 
V:3 bass 
V:4 bass 
V:1
 [CE][CE] | [EA]2 [CE]2 [EA]2 [EB]2 | [Ec]6 [EA][EB] | [Ac]2 A2 [Ac]2 [Ad]2 | [Ae]6 [Ec][Ec] | %5
w: 1.~Oh, the|love so full and|free That the|Lord be- stowed on|me, When He|
w: 2.~On the|cross His life He|gave, Ev- ery|dy- ing soul to|save, And He|
w: 3.~I will|praise the Lord in|song Till I|join that blood washed|throng, Ne- ver-|
 [Ed]2 [Gd]2 [GB]2 [Gd][Gd] | [Ac]2 [Ac]2 [EA]2 [Ec][Ec] | [EB]2 [EB][EB] [=DB]2 [B,D]2 | [B,E]6 || %9
w: bade me come to my|heav- enly home By the|way of re- deem- ing|love.|
w: points the way to the|realms of day By the|way of re- deem- ing|love.|
w: more to roam when I|reach my home By the|way of re- deem- ing|love.|
"^Refrain" [CE][CE] | [Ec]2 [Ec][Ec] [Ec]2 [EB]2 | [EA]6 [CE][CE] | [Ed]2 [Ed][Ed] [Ed]2 [Ec]2 | %13
w: ||||
w: By the|way of re- deem- ing|love, By the|way of re- deem- ing|
w: ||||
 [EB]6 [DE]2 | [CA]2 [Ec]2 [_Ge]3 [Ge] | [Fe]2 [Fd]2 [FA]2 [_FB]2 | [Ec]2 [Ec][Ec] [Ec]2 [DB]2 | %17
w: ||||
w: love, I’m|go- ing home to|glor- y By the|way of re- deem- ing|
w: ||||
 [CA]6 |] %18
w: |
w: love.|
w: |
V:2
 x2 | x8 | x8 | x2 A2 x4 | x8 | x8 | x8 | x8 | x6 || x2 | x8 | x8 | x8 | x8 | x8 | x8 | x8 | x6 |] %18
V:3
 [A,,A,][A,,A,] | [A,,C]2 [A,,A,]2 [A,,C]2 [E,G,]2 | A,6 [A,C][A,D] | %3
w: ~ ~|~ ~ ~ ~|~ ~ ~|
 [A,E]2 [A,C]2 [A,E]2 [A,B,]2 | [A,C]6 A,A, | [E,G,]2 [E,B,]2 [E,E]2 [E,E][E,E] | %6
w: ~ ~ ~ ~|~ ~ ~|~ ~ ~ ~ ~|
 [A,E]2 [A,E]2 [A,C]2 [A,,A,][A,,A,] | [B,,G,]2 [B,,G,][B,,G,] [B,,F,]2 [B,,A,]2 | [E,G,]6 || %9
w: ~ ~ ~ ~ ~|~ ~ ~ ~ ~|~|
 A,A, | [A,,A,]2 [C,A,][E,A,] A,2 [E,D]2 | [A,,C]6 [A,,A,][A,,A,] | %12
w: |||
 [E,G,]2 [E,G,][F,A,] [G,B,]2 A,2 | [E,G,]6 [E,G,]2 | [A,,A,]2 [A,,A,]2 [A,,C]3 [A,C] | %15
w: |||
 [D,D]2 [D,A,]2 [D,D]2 [D,A,]2 | [E,A,]2 [E,A,][E,A,] [E,G,]2 [E,G,]2 | [A,,A,]6 |] %18
w: |||
V:4
 x2 | x8 | A,6 x2 | x8 | x6 A,A, | x8 | x8 | x8 | x6 || A,A, | x4 A,2 x2 | x8 | x6 A,2 | x8 | x8 | %15
 x8 | x8 | x6 |] %18

